findly-builder/apps/searchassist/src/assets/icons/editor/align-center.svg

<svg width="12" height="13" viewBox="0 0 12 13" fill="none" xmlns="http://www.w3.org/2000/svg">
<path d="M0.53125 0.962402V2.22823H11.9237V0.962402H0.53125ZM1.79707 3.49405V4.75987H10.6578V3.49405H1.79707ZM0.53125 6.02569V7.29152H11.9237V6.02569H0.53125ZM1.79707 8.55734V9.82316H10.6578V8.55734H1.79707ZM0.53125 11.089V12.3548H11.9237V11.089H0.53125Z" fill="black"/>
</svg>

<svg width="12" height="13" fill="none" xmlns="http://www.w3.org/2000/svg"><path d="M.531.962v1.266h11.393V.962H.53Zm1.266 2.532V4.76h8.86V3.494h-8.86ZM.531 6.026v1.266h11.393V6.026H.53Zm1.266 2.531v1.266h8.86V8.557h-8.86ZM.531 11.09v1.266h11.393V11.09H.53Z" fill="#000"/></svg>
